X:1
T:Title
%%score { ( 1 4 ) | ( 2 3 ) }
L:1/8
Q:1/4=78
M:6/8
K:D
V:1 treble nm="Grand Piano"
V:4 treble 
V:2 bass 
V:3 bass 
V:1
 FED [FA][EG][DF] | [DB][DB][Dd] A3 | FED [GB][FA][DF] | [CE]6 | FED [FA][EG][DF] | %5
w: Frank~M.~Davis * * * * *|||||
 [DB][DB][Dd] A3 | AGF [CE][DF][CE] | D6 | EFG cBA | [FA][FA][FA] [Fd]3 | EFG cBA | %11
w: ||||||
 [FA][FA][FA] F3 | ddd ccc | BBB [B,DG]2[K:bass] [B,E] | %14
w: |||
 [F,D][K:treble][A,DF][A,DF] [A,DF][A,DF][G,CE] |[M:5/8][K:bass] [F,D]-[F,D]- [F,D]3 | %16
w: ||
[M:1/8][K:treble] [FA] |[M:3/4] A4 z2 | d6 | [FA][GB] [FA][GB] [FA][A,DF] | [CE]6 | F4 z2 | B6 | %23
w: |||||||
 Ac B[CGA] [CGe][Ec] | [Fd]6 |] %25
w: ||
V:2
 [D,A,D][D,G,D][D,F,] [D,A,][D,A,][D,A,] | [G,,G,][G,,G,][B,,G,] [D,F,D]3 | %2
 [D,A,D][D,G,D][D,F,] [D,D][D,D][D,A,] | [A,,A,]6 | [D,A,D][D,G,D][D,F,] [D,A,][D,A,][D,A,] | %5
 [G,,G,][G,,G,][B,,G,] [D,F,D]3 | [A,F][A,E][K:bass][A,D] [A,,A,][A,,A,][A,,G,] | [D,F,]6 | %8
 [A,C][A,D][A,E] [A,A][A,B,G][A,CG] | [D,D][D,D][D,D] [D,A,]3 | %10
 [A,C][K:treble][A,D][A,E] [A,A][A,B,G][A,CG] | [D,D][D,D][D,D] [D,A,D]3 | %12
 [B,F][B,F][B,F][K:bass] [F,^A,E][F,A,E][F,A,E] | [G,B,D][G,B,D][G,B,D] z2 G, | %14
 A,,A,,A,, A,,A,,A,, |[M:5/8] D,-D,- D,3 |[M:1/8] [D,D] |[M:3/4] [D,D][D,D] .[D,D]2 GD, | %18
 [D,A,][D,A,] [D,A,] [D,A,]3 | [D,D][D,D] [D,D][D,D] [D,D]D, | A,,C, E, A,2 [D,A,D] | z2 z .A,3 | %22
 [G,DG][G,D] [G,D] .[G,D]3 | [A,CG][A,EG] [A,DG][K:bass]A,, A,,[A,,A,] | [D,A,]6 |] %25
V:3
 x6 | x6 | x6 | x6 | x6 | x6 | x2[K:bass] x4 | x6 | x6 | x6 | x[K:treble] x5 | x6 | x3[K:bass] x3 | %13
 z3 G,,3 | x6 |[M:5/8] x5 |[M:1/8] x |[M:3/4] z2 z .[D,D]3 | x6 | x6 | x6 | %21
 [D,A,D][D,A,] [D,A,]D, [E,C][F,A,D] | x6 | x3[K:bass] x3 | x6 |] %25
V:4
 x6 | x6 | x6 | x6 | x6 | x6 | x6 | x6 | x6 | x6 | x6 | x6 | x6 | x5[K:bass] x | x[K:treble] x5 | %15
[M:5/8][K:bass] x5 |[M:1/8][K:treble] x |[M:3/4] FF FF B[DFA] | FF F F3 | x6 | A,4 z F | %21
 z D DD GA | z G G .G3 | x6 | x6 |] %25

